report_00007_2020-12-11T15:55:29.892Z/uses-http2/comparison/line/4_vs_5.svg

<svg width="640" height="500" xmlns="http://www.w3.org/2000/svg" xmlns:xlink="http://www.w3.org/1999/xlink"><path fill="#fff" d="M0 0h640v500H0z"/><defs><path id="d" stroke-width=".222" stroke="currentColor" d="M-1-1h2v2h-2z"/><path id="b" stroke-width=".222" stroke="currentColor" d="M0-1.33l-1.33 2h2.66z"/><path id="f" stroke-width=".222" stroke="currentColor" d="M0 1.33L1.265.411.782-1.067l-1.564-.009-.483 1.487z"/><use xlink:href="#b" id="c" stroke="currentColor" transform="rotate(180)"/><use xlink:href="#d" id="e" stroke="currentColor" transform="rotate(45)"/><circle id="a" stroke-width=".222" stroke="currentColor" cx="0" cy="0" r="1"/></defs><g fill="none" color="#000" stroke="currentColor"><path stroke="#000" d="M53.9 437.8h9m552.1 0h-9"/><text transform="translate(45.6 441.7)" stroke="none" fill="#000" font-family="Arial" font-size="12" text-anchor="end"><tspan>0</tspan></text></g><g fill="none" color="#000" stroke="currentColor"><path stroke="#000" d="M53.9 373.5h9m552.1 0h-9"/><text transform="translate(45.6 377.4)" stroke="none" fill="#000" font-family="Arial" font-size="12" text-anchor="end"><tspan>50</tspan></text></g><g fill="none" color="#000" stroke="currentColor"><path stroke="#000" d="M53.9 309.2h9m552.1 0h-9"/><text transform="translate(45.6 313.1)" stroke="none" fill="#000" font-family="Arial" font-size="12" text-anchor="end"><tspan>100</tspan></text></g><g fill="none" color="#000" stroke="currentColor"><path stroke="#000" d="M53.9 244.9h9m552.1 0h-9"/><text transform="translate(45.6 248.8)" stroke="none" fill="#000" font-family="Arial" font-size="12" text-anchor="end"><tspan>150</tspan></text></g><g fill="none" color="#000" stroke="currentColor"><path stroke="#000" d="M53.9 180.6h9m552.1 0h-9"/><text transform="translate(45.6 184.5)" stroke="none" fill="#000" font-family="Arial" font-size="12" text-anchor="end"><tspan>200</tspan></text></g><g fill="none" color="#000" stroke="currentColor"><path stroke="#000" d="M53.9 116.3h9m552.1 0h-9"/><text transform="translate(45.6 120.2)" stroke="none" fill="#000" font-family="Arial" font-size="12" text-anchor="end"><tspan>250</tspan></text></g><g fill="none" color="#000" stroke="currentColor"><path stroke="#000" d="M53.9 52h9M615 52h-9"/><text transform="translate(45.6 55.9)" stroke="none" fill="#000" font-family="Arial" font-size="12" text-anchor="end"><tspan>300</tspan></text></g><g fill="none" color="#000" stroke="currentColor"><path stroke="#000" d="M53.9 446v-9m0-418.9v9"/><text transform="translate(53.9 467.9)" stroke="none" fill="#000" font-family="Arial" font-size="12" text-anchor="middle"><tspan>0</tspan></text></g><g fill="none" color="#000" stroke="currentColor"><path stroke="#000" d="M110.6 446v-9m0-418.9v9"/><text transform="translate(110.6 467.9)" stroke="none" fill="#000" font-family="Arial" font-size="12" text-anchor="middle"><tspan>10</tspan></text></g><g fill="none" color="#000" stroke="currentColor"><path stroke="#000" d="M167.3 446v-9m0-418.9v9"/><text transform="translate(167.3 467.9)" stroke="none" fill="#000" font-family="Arial" font-size="12" text-anchor="middle"><tspan>20</tspan></text></g><g fill="none" color="#000" stroke="currentColor"><path stroke="#000" d="M223.9 446v-9m0-418.9v9"/><text transform="translate(223.9 467.9)" stroke="none" fill="#000" font-family="Arial" font-size="12" text-anchor="middle"><tspan>30</tspan></text></g><g fill="none" color="#000" stroke="currentColor"><path stroke="#000" d="M280.6 446v-9m0-418.9v9"/><text transform="translate(280.6 467.9)" stroke="none" fill="#000" font-family="Arial" font-size="12" text-anchor="middle"><tspan>40</tspan></text></g><g fill="none" color="#000" stroke="currentColor"><path stroke="#000" d="M337.3 446v-9m0-418.9v9"/><text transform="translate(337.3 467.9)" stroke="none" fill="#000" font-family="Arial" font-size="12" text-anchor="middle"><tspan>50</tspan></text></g><g fill="none" color="#000" stroke="currentColor"><path stroke="#000" d="M394 446v-9m0-418.9v9"/><text transform="translate(394 467.9)" stroke="none" fill="#000" font-family="Arial" font-size="12" text-anchor="middle"><tspan>60</tspan></text></g><g fill="none" color="#000" stroke="currentColor"><path stroke="#000" d="M450.6 446v-9m0-418.9v9"/><text transform="translate(450.6 467.9)" stroke="none" fill="#000" font-family="Arial" font-size="12" text-anchor="middle"><tspan>70</tspan></text></g><g fill="none" color="#000" stroke="currentColor"><path stroke="#000" d="M507.3 446v-9m0-418.9v9"/><text transform="translate(507.3 467.9)" stroke="none" fill="#000" font-family="Arial" font-size="12" text-anchor="middle"><tspan>80</tspan></text></g><g fill="none" color="#000" stroke="currentColor"><path stroke="#000" d="M564 446v-9m0-418.9v9"/><text transform="translate(564 467.9)" stroke="none" fill="#000" font-family="Arial" font-size="12" text-anchor="middle"><tspan>90</tspan></text></g><path stroke="#000" d="M53.9 18.1V446H615V18.1H53.9z" fill="none" color="#000"/><text transform="translate(275.6 485.9)" stroke="none" fill="#000" font-family="Arial" font-size="12" text-anchor="end" color="#000"><tspan>pages+cached+noadtech</tspan></text><path stroke="#9400D3" d="M283.9 482h42.2M53.9 219.2l5.7 180h5.6l5.7 12.9 5.7-192.9h11.3l5.7 192.9h11.3l5.7-192.9h5.6l5.7 180h17l5.7-180 5.7 192.9 5.6-192.9 5.7 180 5.7 12.9 5.6 25.7 5.7-231.5 5.7 205.8 5.6-12.9h11.4l5.6 38.6 5.7-218.6h5.7l5.6 192.9h22.7l5.7-192.9 5.6 180 5.7 12.9 5.7-192.9h5.6l5.7 192.9 5.7-385.8 5.6 385.8 5.7-192.9 5.7 180 5.6-180 5.7 180h5.7l5.6-180h5.7l5.7 180h11.3l5.7-180 5.7 192.9 5.6-192.9 5.7 180 5.7 12.9 5.6-192.9 5.7 180 5.7-180 5.6 180 5.7-180 5.7 180h11.3l5.7 38.6 5.6-25.7h5.7l5.7-192.9 5.6-180 5.7 180 5.7 192.9 5.6-12.9 5.7-180 5.7 180h5.6l5.7-180h5.7l5.6 192.9 5.7-192.9 5.7 192.9 5.6-192.9 5.7 192.9 5.7-192.9h11.3l5.7 180 5.7-180 5.6 192.9 5.7-12.9 5.7 38.6 5.6-25.7 5.7 25.7 5.7-218.6 5.6-12.9 5.7 12.9 5.7 180 5.6 38.6 5.7-218.6" fill="none" color="#000"/><text transform="translate(525.3 485.9)" stroke="none" fill="#000" font-family="Arial" font-size="12" text-anchor="end" color="#000"><tspan>pages+cached+noexternal</tspan></text><path stroke="#009E73" d="M533.6 482h42.2M53.9 219.2l5.7 218.6 5.6-218.6 5.7 218.6 5.7-231.5 5.6 192.9h5.7l5.7-180h22.6l5.7 180 5.7 12.9h11.3l5.7-192.9H172.9l5.7 180 5.7 12.9 5.6-192.9 5.7 218.6 5.7-218.6h17l5.6 180h11.4l5.6 12.9 5.7-192.9 5.7 180 5.6-180 5.7 180 5.7-180h5.6l5.7 192.9 5.7-192.9 5.6 218.6h5.7l5.7-25.7h5.6l5.7-192.9 5.7 192.9h11.3l5.7-385.8 5.7 192.9 5.6 180 5.7-180h5.7l5.6 192.9 5.7-192.9 5.7 180 5.6-180h5.7l5.7 192.9 5.6-192.9h5.7l5.7 180 5.6 38.6 5.7-218.6 5.7 180 5.6-372.9 5.7 385.8 5.7-192.9 5.6 192.9 5.7 25.7L462 26.3l5.6 385.8h5.7l5.7-192.9h5.6l5.7 192.9 5.7 25.7 5.6-25.7 5.7-192.9L513 26.3l5.6 385.8h5.7l5.7-205.8 5.7 12.9 5.6 218.6 5.7-218.6h5.7l5.6 218.6h5.7l5.7-25.7h17l5.6 25.7 5.7-38.6 5.7-180h5.6l5.7 180" fill="none" color="#000"/><g fill="none" color="#000" stroke="currentColor"><path stroke="#000" d="M53.9 18.1V446H615V18.1H53.9z"/></g></svg>

<?xml version="1.0" encoding="utf-8"  standalone="no"?>
<svg 
 width="640" height="500"
 viewBox="0 0 640 500"
 xmlns="http://www.w3.org/2000/svg"
 xmlns:xlink="http://www.w3.org/1999/xlink"
>

<title>Gnuplot</title>
<desc>Produced by GNUPLOT 5.4 patchlevel 0 </desc>

<g id="gnuplot_canvas">

<rect x="0" y="0" width="640" height="500" fill="#ffffff"/>
<defs>

	<circle id='gpDot' r='0.5' stroke-width='0.5' stroke='currentColor'/>
	<path id='gpPt0' stroke-width='0.222' stroke='currentColor' d='M-1,0 h2 M0,-1 v2'/>
	<path id='gpPt1' stroke-width='0.222' stroke='currentColor' d='M-1,-1 L1,1 M1,-1 L-1,1'/>
	<path id='gpPt2' stroke-width='0.222' stroke='currentColor' d='M-1,0 L1,0 M0,-1 L0,1 M-1,-1 L1,1 M-1,1 L1,-1'/>
	<rect id='gpPt3' stroke-width='0.222' stroke='currentColor' x='-1' y='-1' width='2' height='2'/>
	<rect id='gpPt4' stroke-width='0.222' stroke='currentColor' fill='currentColor' x='-1' y='-1' width='2' height='2'/>
	<circle id='gpPt5' stroke-width='0.222' stroke='currentColor' cx='0' cy='0' r='1'/>
	<use xlink:href='#gpPt5' id='gpPt6' fill='currentColor' stroke='none'/>
	<path id='gpPt7' stroke-width='0.222' stroke='currentColor' d='M0,-1.33 L-1.33,0.67 L1.33,0.67 z'/>
	<use xlink:href='#gpPt7' id='gpPt8' fill='currentColor' stroke='none'/>
	<use xlink:href='#gpPt7' id='gpPt9' stroke='currentColor' transform='rotate(180)'/>
	<use xlink:href='#gpPt9' id='gpPt10' fill='currentColor' stroke='none'/>
	<use xlink:href='#gpPt3' id='gpPt11' stroke='currentColor' transform='rotate(45)'/>
	<use xlink:href='#gpPt11' id='gpPt12' fill='currentColor' stroke='none'/>
	<path id='gpPt13' stroke-width='0.222' stroke='currentColor' d='M0,1.330 L1.265,0.411 L0.782,-1.067 L-0.782,-1.076 L-1.265,0.411 z'/>
	<use xlink:href='#gpPt13' id='gpPt14' fill='currentColor' stroke='none'/>
	<filter id='textbox' filterUnits='objectBoundingBox' x='0' y='0' height='1' width='1'>
	  <feFlood flood-color='#FFFFFF' flood-opacity='1' result='bgnd'/>
	  <feComposite in='SourceGraphic' in2='bgnd' operator='atop'/>
	</filter>
	<filter id='greybox' filterUnits='objectBoundingBox' x='0' y='0' height='1' width='1'>
	  <feFlood flood-color='lightgrey' flood-opacity='1' result='grey'/>
	  <feComposite in='SourceGraphic' in2='grey' operator='atop'/>
	</filter>
</defs>
<g fill="none" color="#FFFFFF" stroke="black" stroke-width="1.00" stroke-linecap="butt" stroke-linejoin="miter">
</g>
<g fill="none" color="black" stroke="currentColor" stroke-width="1.00" stroke-linecap="butt" stroke-linejoin="miter">
	<path stroke='black'  d='M53.9,437.8 L62.9,437.8 M615.0,437.8 L606.0,437.8  '/>	<g transform="translate(45.6,441.7)" stroke="none" fill="black" font-family="Arial" font-size="12.00"  text-anchor="end">
		<text><tspan font-family="Arial" > 0</tspan></text>
	</g>
</g>
<g fill="none" color="black" stroke="currentColor" stroke-width="1.00" stroke-linecap="butt" stroke-linejoin="miter">
	<path stroke='black'  d='M53.9,373.5 L62.9,373.5 M615.0,373.5 L606.0,373.5  '/>	<g transform="translate(45.6,377.4)" stroke="none" fill="black" font-family="Arial" font-size="12.00"  text-anchor="end">
		<text><tspan font-family="Arial" > 50</tspan></text>
	</g>
</g>
<g fill="none" color="black" stroke="currentColor" stroke-width="1.00" stroke-linecap="butt" stroke-linejoin="miter">
	<path stroke='black'  d='M53.9,309.2 L62.9,309.2 M615.0,309.2 L606.0,309.2  '/>	<g transform="translate(45.6,313.1)" stroke="none" fill="black" font-family="Arial" font-size="12.00"  text-anchor="end">
		<text><tspan font-family="Arial" > 100</tspan></text>
	</g>
</g>
<g fill="none" color="black" stroke="currentColor" stroke-width="1.00" stroke-linecap="butt" stroke-linejoin="miter">
	<path stroke='black'  d='M53.9,244.9 L62.9,244.9 M615.0,244.9 L606.0,244.9  '/>	<g transform="translate(45.6,248.8)" stroke="none" fill="black" font-family="Arial" font-size="12.00"  text-anchor="end">
		<text><tspan font-family="Arial" > 150</tspan></text>
	</g>
</g>
<g fill="none" color="black" stroke="currentColor" stroke-width="1.00" stroke-linecap="butt" stroke-linejoin="miter">
	<path stroke='black'  d='M53.9,180.6 L62.9,180.6 M615.0,180.6 L606.0,180.6  '/>	<g transform="translate(45.6,184.5)" stroke="none" fill="black" font-family="Arial" font-size="12.00"  text-anchor="end">
		<text><tspan font-family="Arial" > 200</tspan></text>
	</g>
</g>
<g fill="none" color="black" stroke="currentColor" stroke-width="1.00" stroke-linecap="butt" stroke-linejoin="miter">
	<path stroke='black'  d='M53.9,116.3 L62.9,116.3 M615.0,116.3 L606.0,116.3  '/>	<g transform="translate(45.6,120.2)" stroke="none" fill="black" font-family="Arial" font-size="12.00"  text-anchor="end">
		<text><tspan font-family="Arial" > 250</tspan></text>
	</g>
</g>
<g fill="none" color="black" stroke="currentColor" stroke-width="1.00" stroke-linecap="butt" stroke-linejoin="miter">
	<path stroke='black'  d='M53.9,52.0 L62.9,52.0 M615.0,52.0 L606.0,52.0  '/>	<g transform="translate(45.6,55.9)" stroke="none" fill="black" font-family="Arial" font-size="12.00"  text-anchor="end">
		<text><tspan font-family="Arial" > 300</tspan></text>
	</g>
</g>
<g fill="none" color="black" stroke="currentColor" stroke-width="1.00" stroke-linecap="butt" stroke-linejoin="miter">
	<path stroke='black'  d='M53.9,446.0 L53.9,437.0 M53.9,18.1 L53.9,27.1  '/>	<g transform="translate(53.9,467.9)" stroke="none" fill="black" font-family="Arial" font-size="12.00"  text-anchor="middle">
		<text><tspan font-family="Arial" > 0</tspan></text>
	</g>
</g>
<g fill="none" color="black" stroke="currentColor" stroke-width="1.00" stroke-linecap="butt" stroke-linejoin="miter">
	<path stroke='black'  d='M110.6,446.0 L110.6,437.0 M110.6,18.1 L110.6,27.1  '/>	<g transform="translate(110.6,467.9)" stroke="none" fill="black" font-family="Arial" font-size="12.00"  text-anchor="middle">
		<text><tspan font-family="Arial" > 10</tspan></text>
	</g>
</g>
<g fill="none" color="black" stroke="currentColor" stroke-width="1.00" stroke-linecap="butt" stroke-linejoin="miter">
	<path stroke='black'  d='M167.3,446.0 L167.3,437.0 M167.3,18.1 L167.3,27.1  '/>	<g transform="translate(167.3,467.9)" stroke="none" fill="black" font-family="Arial" font-size="12.00"  text-anchor="middle">
		<text><tspan font-family="Arial" > 20</tspan></text>
	</g>
</g>
<g fill="none" color="black" stroke="currentColor" stroke-width="1.00" stroke-linecap="butt" stroke-linejoin="miter">
	<path stroke='black'  d='M223.9,446.0 L223.9,437.0 M223.9,18.1 L223.9,27.1  '/>	<g transform="translate(223.9,467.9)" stroke="none" fill="black" font-family="Arial" font-size="12.00"  text-anchor="middle">
		<text><tspan font-family="Arial" > 30</tspan></text>
	</g>
</g>
<g fill="none" color="black" stroke="currentColor" stroke-width="1.00" stroke-linecap="butt" stroke-linejoin="miter">
	<path stroke='black'  d='M280.6,446.0 L280.6,437.0 M280.6,18.1 L280.6,27.1  '/>	<g transform="translate(280.6,467.9)" stroke="none" fill="black" font-family="Arial" font-size="12.00"  text-anchor="middle">
		<text><tspan font-family="Arial" > 40</tspan></text>
	</g>
</g>
<g fill="none" color="black" stroke="currentColor" stroke-width="1.00" stroke-linecap="butt" stroke-linejoin="miter">
	<path stroke='black'  d='M337.3,446.0 L337.3,437.0 M337.3,18.1 L337.3,27.1  '/>	<g transform="translate(337.3,467.9)" stroke="none" fill="black" font-family="Arial" font-size="12.00"  text-anchor="middle">
		<text><tspan font-family="Arial" > 50</tspan></text>
	</g>
</g>
<g fill="none" color="black" stroke="currentColor" stroke-width="1.00" stroke-linecap="butt" stroke-linejoin="miter">
	<path stroke='black'  d='M394.0,446.0 L394.0,437.0 M394.0,18.1 L394.0,27.1  '/>	<g transform="translate(394.0,467.9)" stroke="none" fill="black" font-family="Arial" font-size="12.00"  text-anchor="middle">
		<text><tspan font-family="Arial" > 60</tspan></text>
	</g>
</g>
<g fill="none" color="black" stroke="currentColor" stroke-width="1.00" stroke-linecap="butt" stroke-linejoin="miter">
	<path stroke='black'  d='M450.6,446.0 L450.6,437.0 M450.6,18.1 L450.6,27.1  '/>	<g transform="translate(450.6,467.9)" stroke="none" fill="black" font-family="Arial" font-size="12.00"  text-anchor="middle">
		<text><tspan font-family="Arial" > 70</tspan></text>
	</g>
</g>
<g fill="none" color="black" stroke="currentColor" stroke-width="1.00" stroke-linecap="butt" stroke-linejoin="miter">
	<path stroke='black'  d='M507.3,446.0 L507.3,437.0 M507.3,18.1 L507.3,27.1  '/>	<g transform="translate(507.3,467.9)" stroke="none" fill="black" font-family="Arial" font-size="12.00"  text-anchor="middle">
		<text><tspan font-family="Arial" > 80</tspan></text>
	</g>
</g>
<g fill="none" color="black" stroke="currentColor" stroke-width="1.00" stroke-linecap="butt" stroke-linejoin="miter">
	<path stroke='black'  d='M564.0,446.0 L564.0,437.0 M564.0,18.1 L564.0,27.1  '/>	<g transform="translate(564.0,467.9)" stroke="none" fill="black" font-family="Arial" font-size="12.00"  text-anchor="middle">
		<text><tspan font-family="Arial" > 90</tspan></text>
	</g>
</g>
<g fill="none" color="black" stroke="currentColor" stroke-width="1.00" stroke-linecap="butt" stroke-linejoin="miter">
</g>
<g fill="none" color="black" stroke="currentColor" stroke-width="1.00" stroke-linecap="butt" stroke-linejoin="miter">
	<path stroke='black'  d='M53.9,18.1 L53.9,446.0 L615.0,446.0 L615.0,18.1 L53.9,18.1 Z  '/></g>
<g fill="none" color="black" stroke="currentColor" stroke-width="1.00" stroke-linecap="butt" stroke-linejoin="miter">
</g>
	<g id="gnuplot_plot_1" ><title>pages+cached+noadtech</title>
<g fill="none" color="black" stroke="currentColor" stroke-width="1.00" stroke-linecap="butt" stroke-linejoin="miter">
	<g transform="translate(275.6,485.9)" stroke="none" fill="black" font-family="Arial" font-size="12.00"  text-anchor="end">
		<text><tspan font-family="Arial" >pages+cached+noadtech</tspan></text>
	</g>
</g>
<g fill="none" color="black" stroke="currentColor" stroke-width="1.00" stroke-linecap="butt" stroke-linejoin="miter">
	<path stroke='rgb(148,   0, 211)'  d='M283.9,482.0 L326.1,482.0 M53.9,219.2 L59.6,399.2 L65.2,399.2 L70.9,412.1 L76.6,219.2 L82.2,219.2
		L87.9,219.2 L93.6,412.1 L99.2,412.1 L104.9,412.1 L110.6,219.2 L116.2,219.2 L121.9,399.2 L127.6,399.2
		L133.2,399.2 L138.9,399.2 L144.6,219.2 L150.3,412.1 L155.9,219.2 L161.6,399.2 L167.3,412.1 L172.9,437.8
		L178.6,206.3 L184.3,412.1 L189.9,399.2 L195.6,399.2 L201.3,399.2 L206.9,437.8 L212.6,219.2 L218.3,219.2
		L223.9,412.1 L229.6,412.1 L235.3,412.1 L240.9,412.1 L246.6,412.1 L252.3,219.2 L257.9,399.2 L263.6,412.1
		L269.3,219.2 L274.9,219.2 L280.6,412.1 L286.3,26.3 L291.9,412.1 L297.6,219.2 L303.3,399.2 L308.9,219.2
		L314.6,399.2 L320.3,399.2 L325.9,219.2 L331.6,219.2 L337.3,399.2 L343.0,399.2 L348.6,399.2 L354.3,219.2
		L360.0,412.1 L365.6,219.2 L371.3,399.2 L377.0,412.1 L382.6,219.2 L388.3,399.2 L394.0,219.2 L399.6,399.2
		L405.3,219.2 L411.0,399.2 L416.6,399.2 L422.3,399.2 L428.0,437.8 L433.6,412.1 L439.3,412.1 L445.0,219.2
		L450.6,39.2 L456.3,219.2 L462.0,412.1 L467.6,399.2 L473.3,219.2 L479.0,399.2 L484.6,399.2 L490.3,219.2
		L496.0,219.2 L501.6,412.1 L507.3,219.2 L513.0,412.1 L518.6,219.2 L524.3,412.1 L530.0,219.2 L535.7,219.2
		L541.3,219.2 L547.0,399.2 L552.7,219.2 L558.3,412.1 L564.0,399.2 L569.7,437.8 L575.3,412.1 L581.0,437.8
		L586.7,219.2 L592.3,206.3 L598.0,219.2 L603.7,399.2 L609.3,437.8 L615.0,219.2  '/></g>
	</g>
	<g id="gnuplot_plot_2" ><title>pages+cached+noexternal</title>
<g fill="none" color="black" stroke="currentColor" stroke-width="1.00" stroke-linecap="butt" stroke-linejoin="miter">
	<g transform="translate(525.3,485.9)" stroke="none" fill="black" font-family="Arial" font-size="12.00"  text-anchor="end">
		<text><tspan font-family="Arial" >pages+cached+noexternal</tspan></text>
	</g>
</g>
<g fill="none" color="black" stroke="currentColor" stroke-width="1.00" stroke-linecap="butt" stroke-linejoin="miter">
	<path stroke='rgb(  0, 158, 115)'  d='M533.6,482.0 L575.8,482.0 M53.9,219.2 L59.6,437.8 L65.2,219.2 L70.9,437.8 L76.6,206.3 L82.2,399.2
		L87.9,399.2 L93.6,219.2 L99.2,219.2 L104.9,219.2 L110.6,219.2 L116.2,219.2 L121.9,399.2 L127.6,412.1
		L133.2,412.1 L138.9,412.1 L144.6,219.2 L150.3,219.2 L155.9,219.2 L161.6,219.2 L167.3,219.2 L172.9,219.2
		L178.6,399.2 L184.3,412.1 L189.9,219.2 L195.6,437.8 L201.3,219.2 L206.9,219.2 L212.6,219.2 L218.3,219.2
		L223.9,399.2 L229.6,399.2 L235.3,399.2 L240.9,412.1 L246.6,219.2 L252.3,399.2 L257.9,219.2 L263.6,399.2
		L269.3,219.2 L274.9,219.2 L280.6,412.1 L286.3,219.2 L291.9,437.8 L297.6,437.8 L303.3,412.1 L308.9,412.1
		L314.6,219.2 L320.3,412.1 L325.9,412.1 L331.6,412.1 L337.3,26.3 L343.0,219.2 L348.6,399.2 L354.3,219.2
		L360.0,219.2 L365.6,412.1 L371.3,219.2 L377.0,399.2 L382.6,219.2 L388.3,219.2 L394.0,412.1 L399.6,219.2
		L405.3,219.2 L411.0,399.2 L416.6,437.8 L422.3,219.2 L428.0,399.2 L433.6,26.3 L439.3,412.1 L445.0,219.2
		L450.6,412.1 L456.3,437.8 L462.0,26.3 L467.6,412.1 L473.3,412.1 L479.0,219.2 L484.6,219.2 L490.3,412.1
		L496.0,437.8 L501.6,412.1 L507.3,219.2 L513.0,26.3 L518.6,412.1 L524.3,412.1 L530.0,206.3 L535.7,219.2
		L541.3,437.8 L547.0,219.2 L552.7,219.2 L558.3,437.8 L564.0,437.8 L569.7,412.1 L575.3,412.1 L581.0,412.1
		L586.7,412.1 L592.3,437.8 L598.0,399.2 L603.7,219.2 L609.3,219.2 L615.0,399.2  '/></g>
	</g>
<g fill="none" color="#FFFFFF" stroke="rgb(  0, 158, 115)" stroke-width="2.00" stroke-linecap="butt" stroke-linejoin="miter">
</g>
<g fill="none" color="black" stroke="currentColor" stroke-width="2.00" stroke-linecap="butt" stroke-linejoin="miter">
</g>
<g fill="none" color="black" stroke="black" stroke-width="1.00" stroke-linecap="butt" stroke-linejoin="miter">
</g>
<g fill="none" color="black" stroke="currentColor" stroke-width="1.00" stroke-linecap="butt" stroke-linejoin="miter">
	<path stroke='black'  d='M53.9,18.1 L53.9,446.0 L615.0,446.0 L615.0,18.1 L53.9,18.1 Z  '/></g>
<g fill="none" color="black" stroke="currentColor" stroke-width="1.00" stroke-linecap="butt" stroke-linejoin="miter">
</g>
</g>
</svg>
